X: 24343
T: Louis Cyr
R: reel
M: 4/4
K: Gmajor
G,2G,B, DG,B,D|EDEF G2GA|BAGB AGFD|EDEF EDB,A,|
G,2G,B, DG,B,D|EDEF G2GA|BAGB AGFD|EDEF GEDB,|
G,G,EG, DG,B,D|EDEF G2GA|BAGB AGFD|EDEF EDB,A,|
G,2G,B, DG,B,D|EDEF G2GA|BAGB AGFD|EDEF G2GA||
BAGB (3ABA GA|BAGB (3ABA GB|cBAc (3BcB AB|cABG A2GA|
BAGB (3ABA GA|BAGB AGFD|E2BB B2F2|F2E2 E2 GA|
BAGB (3ABA GA|BAGB (3ABA GB|cBAc (3BcB AB|cABG A2GA|
BAGB (3ABA GA|BAGB AGFD|E2BB B2F2|F2E2 E4||

